X: 1942
T: Vur Pençe-i Âli`deki...
C: Münir Nurettin Selçuk
O: Turkey
F: http://compmusic.upf.edu/node/140
N: mahur--mars--nimhafif--vur_pence-i--munir_nurettin_selcuk
N: makam= mahur
N: form= mars
N: usul= nimhafif = 16/4
M: 16/4
L: 1/16
K: C ^9/8f   
Q: 1/4=96
%%MIDI tuningsystem comma53
g4 g4 g6d2 g2f2 e2f2 d6z2 d4 b4 a4 g4 f3d e2f2 g6z2  | \
w:  ARANAĞME  | 
g4 g4 g6d2 e3d c2e2 d6z2 A4 A2c2 B4 A4 G3F E2F2 G6z2  | 
w:   | 
g4 g4 g6d2 e3d c2e2 d6z2 A4 A2c2 B4 A4 G3F E2F2 G6z2  | 
w:   | 
g4 g4 g2d4g2 f3e d2e2 d6z2 d4 b4 a4 g4 f3d e2f2 g6z2  | 
w:  Vur  pen çe  i  Â lî *  *  de ki  şem şîr_ *  *  aş *  *  kı na    | 
g4 g4 g2d4g2 f3e d2e2 d6z2 d4 b4 a4 g4 f3d e2f2 g6z2  | 
w:  Vur  pen çe  i  Â lî *  *  de ki  şem şîr_ *  *  aş *  *  kı na    | 
g4 a4 a2a4g2 f3e f2g2 f3e d4 d2z2 c'4 b4 a4 g3f e2f2 g6z2  | 
w:  Gül ben gi  â su mâ *  nı  tu tan  *  *  *  pîr_ *  *  aş *  *  kı na    | 
g4 a4 a2a4g2 f3e f2g2 f3e d4 d2z2 a4 g4 f4 g3f e2f2 d6z2  | 
w:  Ey  leş ker_ i  mü fet *  ti  hul_ eb *  vab  *  vur  *  *  vur  *  *  bu gün    | 
d4 g4 d2g2 f2e2 d2c2 B2e2 d4 z2B2 A4 c4 B4 A4 G3F E2F2 G6z2  | 
w:  Feth_ i  mü bî *  *  ni  zâ *  *  min  o  teb şir_ *  *  aş *  *  kı na    | 
d4 g4 d2g2 f2e2 d2c2 B2e2 d4 z2B2 A4 c4 B4 A4 G3F E2F2 G6z2  | 
w:  Feth_ i  mü bî *  *  ni  zâ *  *  min  o  teb şir_ *  *  aş *  *  kı na    | 
g4 g4 g6d2 g3f e2f2 d6z2 d4 b4 a4 g4 f3d e2f2 g6z2  | \
w:  ARANAĞME  | 
g4 g4 g6d2 e3d c2e2 d6z2 A4 A2c2 B4 A4 G3F E2F2 G6z2  | 
w:   | 
g4 g4 g6d2 e3d c2e2 d6z2 A4 A2c2 B4 A4 G3F E2F2 G6z2  | 
w:   | 
g4 g4 g2d4g2 f3e d2e2 d6z2 d2b6 a4 g4 f2d2 e2f2 g6z2  | 
w:  Düş sün  çe len gi  Rû *  *  *  mun  e ğil sün  *  ser_ i  *  Fi renk    | 
g4 g4 g2d4g2 f3e d2e2 d6z2 d2b6 a4 g4 f2d2 e2f2 g6z2  | 
w:  Düş sün  çe len gi  Rû *  *  *  mun  e ğil sün  *  ser_ i  *  Fi renk    | 
g4 a4 a2a4g2 f3e f2g2 f3e d4 d4 c'4 b4 a4 g3f e2f2 g6z2  | 
w:  Vur  Tür kü  gön de ren  *  *  yed_ i  *  *  tak dîr  *  *  aş *  *  kı na    | 
g4 a4 a2c'2 b2a2 a3g f2g2 a6z2 c'4 b2a2 a4 g2f2 g2f2 e2f2 d6z2  | 
w:  Son  sav le tin *  le  vur  *  *  *  ki  vur  ki  a çıl sın  *  bu  sûr *  *  lar    | 
d4 g4 d2g2 f2e2 d3c B2e2 d6z2 A4 c4 B4 A4 G3F E2F2 G6z2  | 
w:  Fecr_ i  hü cûm_ *  i çin *  *  de ki  tek bîr_ *  *  aş *  *  kı na    | 
d4 g4 d2g2 f2e2 d3c B2e2 d6z2 A4 c4 B4 A4 G3F E2F2 G6z2  | 
w:  Fecr_ i  hü cûm_ *  i çin *  *  de ki  tek bîr_ *  *  aş *  *  kı na    | 
B4 B4 B2d4c2 B4 B4 B2c4B2 A4 c4 B4 A4 G4 ^A4 B6z2  | \
w:  Al lah_ ü  ek ber  Al lah_ ü  ek ber  Al lah  *  *  yâ  Al lah    | 
B4 B4 B2d4c2 B4 B4 B2c4B2 A4 c4 B4 A4 G4 F4 G6z2  | 
w:  Al lah_ ü  ek ber  Al lah_ ü  ek ber  Al lah  *  *  yâ  Al lah    | 
_1/4B4 B4 d6c2 B4 B4 c6B2 A4 A4 A2c2 B2A2 G4 ^A4 B6z2  | \
w:  Yâ  set târ  *  yâ  ceb bâr  *  yâ  gaf fâr  *  *  *  yâ  Al lah    | 
_1/4B4 B4 d6c2 B4 B4 c6B2 A4 A4 A2c2 B2A2 G4 F4 G6z2  | 
w:  Yâ  set târ  *  yâ  ceb bâr  *  yâ  gaf fâr  *  *  *  yâ  Al lah   | 
g4 g4 g6d2 e3d c2e2 d6z2 A4 A2c2 B4 A4 G3F E2F2 G6z2  | 
w:   | 
g4 g4 g6d2 e3d c2e2 d6z2 A4 A2c2 B4 A4 G3F E2F2 G6z2  | 
w:   | 
|


